!!!COM: Bach, Johann Sebastian
!!!OPR: Joh. Seb. Bachs vierstimmige Choralgesänge
!!!XEN: Four-part Chorales
!!!OTL: 6. Wo Gott der Herr nicht bei uns hält
!!!SCT: BWV 258
!!!SCA: Thematisch-systematisches Verzeichnis der musikalischen Werke Johann Sebastian Bach: Bach-Werke-Verzeichnis (Schmieder)
!!!YOR: Bach Gesellschaft Edition xxxix
!!!ENC: Steven Rasmussen
!!!CDT: 1685/3//-1750/7/28/
!!!OCY: Deutschland
!!!YEC: Copyright (c) 1994, 2000 Center for Computer Assisted Research in the Humanities
!!!YEM: Rights to all derivative editions reserved
!!!YEN: United States of America
**kern	**kern	**kern	**kern	**silbe
*I:[BASSO]	*I:[TENORE]	*I:[ALTO]	*I:[SOPRANO]	*I:[SOPRANO]
*>[A,A,B]	*>[A,A,B]	*>[A,A,B]	*>[A,A,B]	*
*>A	*>A	*>A	*>A	*
*clefF4	*clefGv2	*clefG2	*clefG2	*
*k[f#c#]	*k[f#c#]	*k[f#c#]	*k[f#c#]	*
*b:	*b:	*b:	*b:	*
*M4/4	*M4/4	*M4/4	*M4/4	*
4B	4d	8f#L	4dd	Wound
.	.	8gJ	.	.
=1	=1	=1	=1	=1
4F#	4d	4a	4dd	GottEr
4G	4d	4g	8bL	derun-
.	.	.	8cc#J	.
8F#L	4d	4a	8ddL	Herr-srer
8EJ	.	.	8eeJ	.
4D	4d	4a	4ff#	nichtSach'
=2	=2	=2	=2	=2
4G#	4d	4b	4ee	beinicht
4A	4c#	8aL	4ee	unszu-
.	.	8gJ	.	.
4D;	4A;	4f#;	4dd;	hÃ¤lt,-fÃ¤llt
4BB	4B	4g#	4dd	wennim
=3	=3	=3	=3	=3
4AA	4e	4a	4cc#	un-Him-
4E	4e	4g	8bL	-sre-mel
.	.	.	8cc#J	.
8BL	8dL	4f#	4dd	Fein-hoch
8AJ	8c#J	.	.	.
8GL	4B	8eL	8eeL	-dedort
8F#J	.	8f#J	8ddJ	.
=4	=4	=4	=4	=4
4E	4B	4g	2cc#	to-o-
4F#	8A#L	4f#	.	.
.	8eJ	.	.	.
4BB;	4d;	4f#;	4b;	-ben,-ben,
=:|!	=:|!	=:|!	=:|!	=:|!
*>B	*>B	*>B	*>B	*
4C#	4An	4a	4ee	wo
=5	=5	=5	=5	=5
8DL	4A	4a	4ff#	Er
8EJ	.	.	.	.
8F#L	8AL	4a	4ff#	I-
8GJ	8BJ	.	.	.
4A	4c#	8eL	8cc#L	-sra-
.	.	8f#J	8ddJ	.
4A#	4c#	4g	4ee	-els
=6	=6	=6	=6	=6
4B	8dL	4f#	4dd	Schutz
.	8c#J	.	.	.
4E#	4B	4g#	4dd	nicht
4F#;	4f#;	4a#;	4cc#;	ist
8BL	4f#	4b	4dd	und
8AJ	.	.	.	.
=7	=7	=7	=7	=7
8G#L	4B	8bL	4ee	sel-
8F#J	.	8aJ	.	.
4E	4e	4g#	8bL	-ber
.	.	.	8cc#J	.
8F#L	8AL	4f#	4dd	bricht
8G#J	8BJ	.	.	.
4A	4c#	4e	4cc#	der
=8	=8	=8	=8	=8
4D#	4f#	4a	4b	Fein-
4E	8eL	4g#	4b	-de
.	8dJ	.	.	.
4AA;	4c#;	4e;	4a;	List,
4BB	4d	4g#	4dd	so
=9	=9	=9	=9	=9
8C#L	4e	4a	4cc#	ist's
8DJ	.	.	.	.
4E	4e	8g#L	8bL	mit
.	.	8a#J	8cc#J	.
8BL	4f#	4b	4dd	uns
8AJ	.	.	.	.
8GL	4B	8bL	8eeL	ver-
8F#J	.	8f#J	8ddJ	.
=10	=10	=10	=10	=10
4E	4B	4g	2cc#	-lo-
4F#	4A#	8f#L	.	.
.	.	8eJ	.	.
4BB;	4F#;	4d;	4b;	-ren.
==|!	==|!	==|!	==|!	==|!
*-	*-	*-	*-	*-
!!!RWG: Key is interpreted using the Humdrum key tool.
!!!URL-pdf: https://s9.imslp.org/files/imglnks/usimg/6/6b/IMSLP24489-PMLP09471-CCARH_Bach_Chorales.pdf#page=3 Musedata edition
!!!URL-pdf: https://s9.imslp.org/files/imglnks/usimg/7/7a/IMSLP04155-Bach_-_BGA_253-438.pdf#page=5 	Bach-Gesellschaft Ausgabe, Band 39 (pp.175-276) Leipzig: Breitkopf und Härtel, 1892. Plate B.W. XXXIX.
!!!END: 1994/05/03
!!!EMD: Converted from MuseData to Humdrum Dec 19, 2000, by Andreas Kornstaedt using muse2kern.
!!!EED: Craig Stuart Sapp
!!!EEV: 2024/03/31
!!!ONB: Some non-unicode characters
!!!filter-keyboard: satb2gs
